material/.icons/material/clipboard-text-play-outline.svg

<svg xmlns="http://www.w3.org/2000/svg" viewBox="0 0 24 24"><path d="M19 3h-4.18C14.25 1.44 12.53.64 11 1.2c-.86.3-1.5.96-1.82 1.8H5a2 2 0 00-2 2v14a2 2 0 002 2h10v-2H5V5h2v2h10V5h2v9h2V5a2 2 0 00-2-2m-7 2a1 1 0 01-1-1 1 1 0 011-1 1 1 0 011 1 1 1 0 01-1 1m5 11v6l5-3-5-3m0-5H7V9h10v2m-2 4H7v-2h8v2z"/></svg>

<?xml version="1.0" encoding="UTF-8"?><!DOCTYPE svg PUBLIC "-//W3C//DTD SVG 1.1//EN" "http://www.w3.org/Graphics/SVG/1.1/DTD/svg11.dtd"><svg xmlns="http://www.w3.org/2000/svg" xmlns:xlink="http://www.w3.org/1999/xlink" version="1.1" id="mdi-clipboard-text-play-outline" width="24" height="24" viewBox="0 0 24 24"><path d="M19,3H14.82C14.25,1.44 12.53,0.64 11,1.2C10.14,1.5 9.5,2.16 9.18,3H5A2,2 0 0,0 3,5V19A2,2 0 0,0 5,21H15V19H5V5H7V7H17V5H19V14H21V5A2,2 0 0,0 19,3M12,5A1,1 0 0,1 11,4A1,1 0 0,1 12,3A1,1 0 0,1 13,4A1,1 0 0,1 12,5M17,16V22L22,19L17,16M17,11H7V9H17V11M15,15H7V13H15V15Z" /></svg>
